modules/gui/qt/pixmaps/prefs/advprefs_extended.svg

<svg viewBox="0 0 48 48" xmlns="http://www.w3.org/2000/svg">
  <path d="M15 8v4h-3v3H8v4h4v3H8v4h4v3H8v4h4v3h3v4h4v-4h3v4h4v-4h3v4h4v-4h3v-3h4v-4h-4v-3h4v-4h-4v-3h4v-4h-4v-3h-3V8h-4v4h-3V8h-4v4h-3V8h-4zm5 12h8v8h-8v-8z" fill="#757575" fill-rule="evenodd"/>
</svg>

<?xml version="1.0" encoding="UTF-8" standalone="no"?>
<!-- Created with Inkscape (http://www.inkscape.org/) -->

<svg
   xmlns:dc="http://purl.org/dc/elements/1.1/"
   xmlns:cc="http://creativecommons.org/ns#"
   xmlns:rdf="http://www.w3.org/1999/02/22-rdf-syntax-ns#"
   xmlns:svg="http://www.w3.org/2000/svg"
   xmlns="http://www.w3.org/2000/svg"
   xmlns:sodipodi="http://sodipodi.sourceforge.net/DTD/sodipodi-0.dtd"
   xmlns:inkscape="http://www.inkscape.org/namespaces/inkscape"
   width="48"
   height="48"
   viewBox="0 0 48 48"
   id="svg2"
   version="1.1"
   inkscape:version="0.92.1 r15371"
   sodipodi:docname="advprefs_extended.svg">
  <defs
     id="defs8" />
  <sodipodi:namedview
     pagecolor="#ffffff"
     bordercolor="#666666"
     borderopacity="1"
     objecttolerance="10"
     gridtolerance="10"
     guidetolerance="10"
     inkscape:pageopacity="0"
     inkscape:pageshadow="2"
     inkscape:window-width="960"
     inkscape:window-height="1028"
     id="namedview6"
     showgrid="true"
     inkscape:zoom="11.313709"
     inkscape:cx="18.900767"
     inkscape:cy="34.439285"
     inkscape:window-x="960"
     inkscape:window-y="27"
     inkscape:window-maximized="0"
     inkscape:current-layer="layer1"
     showguides="true"
     inkscape:guide-bbox="true">
    <sodipodi:guide
       position="0,24.017661"
       orientation="1,0"
       id="guide2390"
       inkscape:locked="false" />
    <sodipodi:guide
       position="23.59322,0"
       orientation="0,1"
       id="guide2392"
       inkscape:locked="false" />
    <inkscape:grid
       type="xygrid"
       id="grid4485" />
  </sodipodi:namedview>
  <metadata
     id="metadata7">
    <rdf:RDF>
      <cc:Work
         rdf:about="">
        <dc:format>image/svg+xml</dc:format>
        <dc:type
           rdf:resource="http://purl.org/dc/dcmitype/StillImage" />
        <dc:title></dc:title>
      </cc:Work>
    </rdf:RDF>
  </metadata>
  <g
     inkscape:label="Master"
     inkscape:groupmode="layer"
     id="layer1"
     transform="translate(-384,-1004.3622)"
     style="display:inline">
    <path
       style="color:#000000;display:inline;overflow:visible;visibility:visible;opacity:1;fill:#757575;fill-opacity:1;fill-rule:evenodd;stroke:none;stroke-width:22.5;stroke-linecap:butt;stroke-linejoin:round;stroke-miterlimit:4;stroke-dasharray:none;stroke-dashoffset:4.19999981;stroke-opacity:1;marker:none;enable-background:accumulate"
       d="M 15 8 L 15 12 L 12 12 L 12 15 L 8 15 L 8 19 L 12 19 L 12 22 L 8 22 L 8 26 L 12 26 L 12 29 L 8 29 L 8 33 L 12 33 L 12 36 L 15 36 L 15 40 L 19 40 L 19 36 L 22 36 L 22 40 L 26 40 L 26 36 L 29 36 L 29 40 L 33 40 L 33 36 L 36 36 L 36 33 L 40 33 L 40 29 L 36 29 L 36 26 L 40 26 L 40 22 L 36 22 L 36 19 L 40 19 L 40 15 L 36 15 L 36 12 L 33 12 L 33 8 L 29 8 L 29 12 L 26 12 L 26 8 L 22 8 L 22 12 L 19 12 L 19 8 L 15 8 z M 20 20 L 28 20 L 28 28 L 20 28 L 20 20 z "
       transform="translate(384,1004.3622)"
       id="rect11141" />
  </g>
</svg>
